main-pages/gulp-scss-starter/dist/img/default/offer-filter/details2.svg

<svg width="26" height="27" viewBox="0 0 26 27" fill="none" xmlns="http://www.w3.org/2000/svg">
<path d="M13.0005 1.63135V3.81317M13.0005 23.4495V25.6313M4.51322 5.14407L6.06231 6.69317M19.9387 20.5695L21.4878 22.1186M1.00049 13.6313H3.18231M22.8187 13.6313H25.0005M4.51322 22.1186L6.06231 20.5695M19.9387 6.69317L21.4878 5.14407M18.455 13.6313C18.455 16.6438 16.013 19.0859 13.0005 19.0859C9.98803 19.0859 7.54594 16.6438 7.54594 13.6313C7.54594 10.6189 9.98803 8.1768 13.0005 8.1768C16.013 8.1768 18.455 10.6189 18.455 13.6313Z" stroke="#616161" stroke-width="2" stroke-linecap="round" stroke-linejoin="round"/>
</svg>

<svg width="26" height="27" viewBox="0 0 26 27" fill="none" xmlns="http://www.w3.org/2000/svg"><path d="M13 1.631v2.182m0 19.637v2.181M4.514 5.144l1.55 1.55M19.938 20.57l1.549 1.549M1 13.63h2.182m19.637 0H25M4.514 22.12l1.55-1.55M19.938 6.694l1.549-1.549m-3.033 8.487a5.455 5.455 0 11-10.909 0 5.455 5.455 0 0110.909 0z" stroke="#616161" stroke-width="2" stroke-linecap="round" stroke-linejoin="round"/></svg>
